X:6
T:Harvest Celebration - Traditional Folk
C:Alex
M:2/4
L:1/8
K:A

|: A2B2 | c4 | B2A2 | G4 |
   E2F2 | G4 | F2E2 | D4 :|

|: A2B2 | c4 | d2c2 | B4 |
   G2A2 | B4 | c2B2 | A4 :|

|: E2F2 | G4 | A2B2 | c4 |
   d2e2 | f4 | e2d2 | c4 :|

